X: 570
T: Dilberânın Meclisinde
C: Ahmet Avni Konuk
O: Turkey
F: http://compmusic.upf.edu/node/140
N: muhayyersunbule--kupe--duyek--dilberanin--ahmet_avni_konuk
N: makam= muhayyersunbule
N: form= kupe
N: usul= duyek = 8/4
M: 8/4
L: 1/16
K: C _1/4B _7/8d  
Q: 1/4=57
%%MIDI tuningsystem comma53
z4 a2a2 a4 a4 ^g2a2 _7/8b2_b{c'}a a4 z4  | \
w:  Dil *  *  be râ *  *  *  *  *  nın   | 
z4 ^c'4 _7/8b4 a4 a3^g f2g2 a4 z4  | 
w:  mec *  li sin *  *  *  de   | 
z4 a2_7/8b2 a4 b4 ^c'2b2 b2a2 b8  | \
w:  düş *  *  tü  gön *  *  *  lüm   | 
z4 a8 _b4 a4 a2^g2 ^1/4f2g2 a4  | \
w:  sen  gü le    | 
z4 a4 a3g g4 g4 {a}g2_b2 a2g2 f2e2  | 
w:  Ol  *  *  se bep *  *  *  ten   | 
e2_3/4d2 c2d2 c4 d4 d2c4_2/4B2 c3B A4  | \
w:  *  *  ol *  *  du  fer *  *  yâ  | 
z4 A2G2 A4 _2/4B4 c4 =d4 d2c2 B2A2  | 
w:  dım  *  *  Mu hay *  yer  | 
G4 G2_7/8e2 =d4 c2_2/4B2 B2A2 B2A2 A6z2  | |


